src/assets/icons/sax/IconEditCircle.svg

<svg width="20" height="20" viewBox="0 0 24 24" fill="none" xmlns="http://www.w3.org/2000/svg">
<path d="M16.04 3.02001L8.16 10.9C7.86 11.2 7.56 11.79 7.5 12.22L7.07 15.23C6.91 16.32 7.68 17.08 8.77 16.93L11.78 16.5C12.2 16.44 12.79 16.14 13.1 15.84L20.98 7.96001C22.34 6.60001 22.98 5.02001 20.98 3.02001C18.98 1.02001 17.4 1.66001 16.04 3.02001Z" stroke="currentColor" stroke-width="1.5" stroke-miterlimit="10" stroke-linecap="round" stroke-linejoin="round"/>
<path d="M14.91 4.1499C15.58 6.5399 17.45 8.4099 19.85 9.0899" stroke="currentColor" stroke-width="1.5" stroke-miterlimit="10" stroke-linecap="round" stroke-linejoin="round"/>
<path d="M12 2C6.44444 2 2 6.44444 2 12C2 17.5556 6.44444 22 12 22C17.5556 22 22 17.5556 22 12" stroke="currentColor" stroke-width="1.5" stroke-linecap="round"/>
</svg>

<svg xmlns="http://www.w3.org/2000/svg" width="20" height="20" fill="none" viewBox="0 0 24 24">
  <path stroke="currentcolor" stroke-linecap="round" stroke-linejoin="round" stroke-miterlimit="10" stroke-width="1.5" d="M16.04 3.02 8.16 10.9c-.3.3-.6.89-.66 1.32l-.43 3.01c-.16 1.09.61 1.85 1.7 1.7l3.01-.43a3 3 0 0 0 1.32-.66l7.88-7.88c1.36-1.36 2-2.94 0-4.94s-3.58-1.36-4.94 0"/>
  <path stroke="currentcolor" stroke-linecap="round" stroke-linejoin="round" stroke-miterlimit="10" stroke-width="1.5" d="M14.91 4.15a7.1 7.1 0 0 0 4.94 4.94"/>
  <path stroke="currentcolor" stroke-linecap="round" stroke-width="1.5" d="M12 2C6.44 2 2 6.44 2 12s4.44 10 10 10 10-4.44 10-10"/>
</svg>
